X:1
T:Drew's Groove
T:Drew's Groove
T:Transcribed
T:Drew
T:A Guy Named Drew © 2020
C:Drew
Z:A Guy Named Drew © 2020
L:1/8
Q:1/4=120
M:4/4
K:C
V:1 perc nm="Drumset" snm="D. Set"
K:none
I:percmap F F 36 normal
I:percmap ^a a 49 x
I:percmap ^e e 46 x
I:percmap ^g g 42 x
I:percmap c c 38 normal
I:percmap e e 47 normal
I:percmap f f 50 normal
V:1
 [Fc]c/c/ F/f/f/F/{/c} c/F/c/c/ F/f/f/F/ |: !>![F^a]^e ^g/^g/^e !>!c/c/^g/!>!^g/ c/^g/!>!^g/c/ | %2
w: r r l * r l * r * r l * r l *|R r r l r L l r R l r R l|
 c/F/F/^g/ ^g/F/F/^g/ !>!c/c/^g/!>!^g/ c/^g/!>!^g/F/ | %3
w: l * * r l * * r L l r R l r R *|
 F/^g/^g/F/ ^g/^g/F/^g/ !>!c/c/^g/!>!^g/ c/^g/!>!^g/c/ | c/F/F/^g/ ^g/F/F/^g/ c/F/f/f/ F/e/e/F/ :| %5
w: * r l * r l * r L l r R l r R l|l * * r l * * r l * r l * r l *|
 !>![F^a]2 z6 |] %6
w: R|

